Sources/FrostedUI/Resources/Icons.xcassets/cameraAddFilled32.imageset/camera-add-filled-32.svg

<svg width="32" height="32" viewBox="0 0 32 32" fill="none" xmlns="http://www.w3.org/2000/svg" data-fui-icon="true">
  <path
    d="M20.0439 2.25C21.2295 2.25007 22.3604 2.69369 23.2256 3.47559C23.4405 3.66982 23.2897 4 23 4C21.6193 4 20.5 5.11929 20.5 6.5C20.5 7.88071 21.6193 9 23 9H23.5C24.0523 9 24.5 9.44772 24.5 10V10.5C24.5 11.8807 25.6193 13 27 13C28.3807 13 29.5 11.8807 29.5 10.5V9.93652C29.5 9.41951 29.9195 9 30.4365 9C30.7521 9.00013 31.052 9.1564 31.1973 9.43652C31.5499 10.118 31.7499 10.8917 31.75 11.7119V24.7002C31.7499 27.7652 29.2652 30.2499 26.2002 30.25H5.7998C2.73478 30.2499 0.250106 27.7652 0.25 24.7002V11.7119C0.250247 8.97163 2.47163 6.75025 5.21191 6.75C5.79278 6.75 6.34154 6.48186 6.69824 6.02344L8.20703 4.08398C9.10689 2.92702 10.4904 2.25009 11.9561 2.25H20.0439ZM16 9.75C11.9959 9.75 8.75 12.9959 8.75 17C8.75 21.0041 11.9959 24.25 16 24.25C20.0041 24.25 23.25 21.0041 23.25 17C23.25 12.9959 20.0041 9.75 16 9.75ZM16 11.25C19.1756 11.25 21.75 13.8244 21.75 17C21.75 20.1756 19.1756 22.75 16 22.75C12.8244 22.75 10.25 20.1756 10.25 17C10.25 13.8244 12.8244 11.25 16 11.25ZM27 1.5C27.5523 1.5 28 1.94772 28 2.5V5.5H31C31.5523 5.5 32 5.94772 32 6.5C32 7.05228 31.5523 7.5 31 7.5H28V10.5C28 11.0523 27.5523 11.5 27 11.5C26.4477 11.5 26 11.0523 26 10.5V7.5H23C22.4477 7.5 22 7.05228 22 6.5C22 5.94772 22.4477 5.5 23 5.5H26V2.5C26 1.94772 26.4477 1.5 27 1.5Z"
    fill="currentColor"
  />
</svg>

<svg xmlns="http://www.w3.org/2000/svg" width="32" height="32" fill="none" data-fui-icon="true" viewBox="0 0 32 32"><path fill="currentColor" d="M20.044 2.25c1.186 0 2.316.444 3.182 1.226C23.44 3.67 23.29 4 23 4a2.5 2.5 0 0 0 0 5h.5a1 1 0 0 1 1 1v.5a2.5 2.5 0 0 0 5 0v-.563c0-.517.42-.937.936-.937.316 0 .616.156.761.437.353.681.553 1.455.553 2.275V24.7a5.55 5.55 0 0 1-5.55 5.55H5.8A5.55 5.55 0 0 1 .25 24.7V11.712A4.96 4.96 0 0 1 5.212 6.75c.58 0 1.13-.268 1.486-.727l1.509-1.939a4.75 4.75 0 0 1 3.75-1.834zM16 9.75a7.25 7.25 0 1 0 0 14.5 7.25 7.25 0 0 0 0-14.5m0 1.5a5.75 5.75 0 1 1 0 11.5 5.75 5.75 0 0 1 0-11.5M27 1.5a1 1 0 0 1 1 1v3h3a1 1 0 1 1 0 2h-3v3a1 1 0 1 1-2 0v-3h-3a1 1 0 1 1 0-2h3v-3a1 1 0 0 1 1-1"/></svg>
